!!!!SEGMENT: pl-kc--40102-iii-1-saf--001-033_zielenski-mikolaj--offertoria-totius-anni-in-festo-decolationis-s-ioannis-baptistae-in-virtute-tua-domine.krn
!!!cenid: 16xx:1511
!!!COM: Zieleński, Mikołaj
!!!COM-rismID: pe30013481
!!!CDT: <1611->1611
!!!CNT: Polish
!!!GTL: Offertoria totius anni
!!!OTL: In festo Decolationis S. Ioannis Baptistae/In virtute tua Domine
!!!OMV: 033
!!!PDT: 1611
!!!AGN:
!!!SMS-siglum: PL-Kc
!!!SMS-shelfmark: 40102 III/1 Saf.
!!!SMS-shelfwork: 001-033 G
!!!SMS-variant:
!!!SMS-altvar:
!!!NIFC-rismSourceID: 990069886
!!!NIFC-islandoraID:
!!!URL-pdf-islandora:
!!!URL-scan: https://cyfrowe.mnk.pl/dlibra/publication/24235/edition/23926/content?ref=desc @EN{Scan on The National Museum in Krakow Website} @PL{Skany w portalu Biblioteka Cyfrowa Muzeum Narodowego w Krakowie}
!!!ONB-nifc: UWAGA: str. 30. Uwaga: W xml metrum 2/1 do źródłowego C| i odpowiednio 3/1 do 3/2
!!!AIN: 4 organ
!!!key: C:ion
**kern	**kern	**kern	**kern
*group1	*group1	*group1	*group1
*part4	*part3	*part2	*part1
*staff4	*staff3	*staff2	*staff1
*I""Organo	*I	*I	*
*Iorgan	*Iorgan	*Iorgan	*Iorgan
*ICklav	*ICklav	*ICklav	*ICklav
*clefF5	*clefC4	*clefC4	*clefC2
*k[b-]	*k[b-]	*k[b-]	*k[b-]
*C:ion	*C:ion	*C:ion	*C:ion
*M2/1	*M2/1	*M2/1	*M2/1
*met(C|)	*met(C|)	*met(C|)	*met(C|)
=1	=1	=1	=1
!LO:TX:t=P:problem=all/middle&colon; global	!LO:TX:t=P:problem=all/middle&colon; global	!LO:TX:t=P:problem=all/middle&colon; global	!LO:TX:t=P:problem=all/middle&colon; global
!LO:TX:t=P:problem=all\middle&colon; global	!LO:TX:t=P:problem=all\middle&colon; global	!LO:TX:t=P:problem=all\middle&colon; global	!LO:TX:t=P:problem=all\middle&colon; global
!	!	!LO:TX:a:t=In virtute tua Domine.	!LO:TX:a:t=In feſto Decolationis S. Ioannis Baptiſtae. A 8.
!	!LO:TX:t=P:problem=na początku brakuje miary aby zgadzały się głosy w 3,4 takcie	!	!
00r	1ryy	1C	00r
.	0r	2F/	.
.	.	2F/	.
=2-	=2-	=2-	=2-
.	.	2E/	.
.	.	1A	.
.	1C	.	.
.	.	.	.
.	.	4G/	.
.	.	4F/	.
=3	=3	=3	=3
00r	2F/	2G/	0r
.	2F/	2.c\	.
.	2.A/	.	.
.	.	.	.
.	.	4B-\	.
.	.	4A/	.
.	4B-\	8G/	.
.	.	8F/	.
=4-	=4-	=4-	=4-
.	2c	2G/	1c
.	1c	4F/	.
.	.	4E/	.
.	.	4D/	2f\
.	.	4C/	.
!	!LO:N:acc=#	!	!
.	2Bn\	2D/	2f\
=5	=5	=5	=5
0r	2.c\	2C/	4e/
.	.	.	8f\
.	.	.	8g\
.	.	4BB-/	2a\
.	4c\	4AA/	.
.	2d\	2BB-/	1g
.	4c\	2C/	.
.	4B-\	.	.
=6-	=6-	=6-	=6-
1FF	4A/	2C/	2f\
.	4G/	.	.
.	4F/	1F	4a\
.	4E/	.	4g\
2BB-/	4D/	.	4f\
.	4C/	.	4e/
2BB-/	4D/	2F/	2d/
.	4E/	.	.
=7	=7	=7	=7
2AA/	2.F/	2.A/	1f
4D\	.	.	.
4C\	4E/	4A/	.
4BB-/	2D/	2G/	2b-\
4AA/	.	.	.
2GG/	2D/	2.G/	2b-\
=8-	=8-	=8-	=8-
1CC	2E/	.	2g\
.	.	4F/	.
.	1G	4E/	2.cc\
.	.	8F/	.
.	.	8E/	.
2GG/	.	2D/	.
!	!	!	!LO:N:acc=#
.	.	.	8bn\
.	.	.	8a\
2GG/	[<2G/	2d\	2b\
=9	=9	=9	=9
2EE/	2G/]	1.c	2.cc\
2.FF/	2.A/	.	.
.	.	.	4b-\
.	.	.	2a\
4GG/	4B-\	.	.
4AA/	2c\	2c\	2a\
4BB-/	.	.	.
=10-	=10-	=10-	=10-
2C\	2G/	2c\	1g
2GG/	1B-	2r	.
[y1DD	.	1r	1r
.	4A/	.	.
.	4G/	.	.
=11	=11	=11	=11
!LO:N:vis=4:xstem:cue	!	!	!
2DD/]	2A/	00r	00r
2DD/	2A/	.	.
!	!LO:N:acc=#	!	!
2GG/	2Bn\	.	.
4C\	4c\	.	.
4C\	4G/	.	.
=12-	=12-	=12-	=12-
2GG/	2B\	.	.
2.D\	2.A/	.	.
2BB-/	2d\	.	.
4BB-/	4B\	.	.
=13	=13	=13	=13
4FF/	2.c\	0r	0r
4GG/	.	.	.
4AA/	.	.	.
4BB-/	8B-\	.	.
.	8A\	.	.
2C\	2G/	.	.
2FF/	2A/	.	.
=14-	=14-	=14-	=14-
1C	1G	1r	2r
.	.	.	2g\
[<1FF	[<1A	2r	2cc\
.	.	2c\	2cc\
=15	=15	=15	=15
1FF]	1A]	2f\	2a\
.	.	2F/	1cc
1r	1r	2c\	.
.	.	2c\	4b-\
.	.	.	4a\
=16-	=16-	=16-	=16-
0r	0r	4B-\	2dd\
.	.	4B-\	.
.	.	2A/	2cc\
.	.	2.G/	2.b-\
.	.	4G/	4b-\
=17	=17	=17	=17
00r	00r	2F/	2a\
.	.	4c\	4g\
.	.	4G/	4b-\
.	.	4.d\	4.a\
.	.	8d\	8a\
.	.	2.d\	2.a\
=18-	=18-	=18-	=18-
.	.	4B-\	2dd\
.	.	4.B-\	.
.	.	.	4b-\
.	.	8B-\	.
.	.	4F/	2.cc\
.	.	4G/	.
.	.	4A/	.
.	.	4B-\	8b-\
.	.	.	8a\
=19	=19	=19	=19
0r	0r	2c\	4g\
.	.	.	4g\
.	.	2G/	2b-\
.	.	2d\	1a
.	.	2D/	.
=20-	=20-	=20-	=20-
2r	2r	2G/	2g\
!	!	!	!LO:N:acc=#
2GG/	2d\	4G/	2bn\
.	.	4d\	.
4.C\	4.e#X\	4.G/	4.cc\
8C\	8e#\	8G/	8cc\
[y2FF/	[y2c\	[y2A/	[y2a\
=21	=21	=21	=21
!LO:N:xstem:cue	!LO:N:xstem:cue	!LO:N:xstem:cue	!LO:N:xstem:cue
4FF/]	4c\]	4A/]	4a\]
4BB-/	4B-\	4d\	2b-\
4.BB-/	4.B-\	2d\	.
.	.	.	4f\
8BB-/	8B-\	.	.
*custos:FF	*custos:c	*custos:A	*custos:a
!LO:LB:g=original	!LO:LB:g=original	!LO:LB:g=original	!LO:LB:g=original
1FF	4c\	2A/	2.a\
.	4c\	.	.
.	2F/	2.d\	.
.	.	.	4a\
=22-	=22-	=22-	=22-
1GG	2r	.	1g
.	.	2c\	.
.	2G/	.	.
!	!	!LO:N:acc=#	!
.	.	4Bn\	.
[y1CC	1G	[<1c	1g
=23	=23	=23	=23
!LO:N:vis=4:xstem:cue	!	!	!
2CC/]	2r	1c]	1g
2CC/	2E/	.	.
2FF/	2A/	1r	1r
2GG/	4G/	.	.
.	4F/	.	.
=24-	=24-	=24-	=24-
2AA/	2E/	0r	0r
2DD/	2A/	.	.
[y1BB-	1d	.	.
=25	=25	=25	=25
!LO:N:vis=4:xstem:cue	!	!	!
2BB-/]	2d\	0r	0r
2AA/	2.c\	.	.
1D	.	.	.
!	!LO:N:acc=#	!	!
.	8Bn\	.	.
.	8A\	.	.
.	2B\	.	.
=26-	=26-	=26-	=26-
0C	0c	1r	2r
.	.	.	2g\
.	.	2r	[y1cc
.	.	2c\	.
=27	=27	=27	=27
!	!	!	!LO:N:vis=4:xstem:cue
00r	00r	2F/	2cc\]
.	.	2G/	2b-\
.	.	2A/	2a\
.	.	2D/	2a\
=28-	=28-	=28-	=28-
.	.	1.B-	1.dd
.	.	2A/	[y2cc\
=29	=29	=29	=29
!	!	!	!LO:N:xstem:cue
00r	00r	1d	4cc\]
!	!	!	!LO:N:acc=#
.	.	.	8bn\
.	.	.	8a\
.	.	.	2b\
.	.	2c\	2cc\
.	.	4c\	4g\
.	.	4c\	4g\
=30-	=30-	=30-	=30-
.	.	2G/	2b-\
.	.	2.D/	2.a\
.	.	2F/	2a\
.	.	4G/	4g\
=31	=31	=31	=31
1r	1r	1A	4.f\
.	.	.	16e/
.	.	.	16d/
.	.	.	2e/
2r	2r	1D	1d
4BB-/	4d\	.	.
4BB-\	4d\	.	.
=32-	=32-	=32-	=32-
2FF/	2f\	0r	0r
2.C\	2.e\	.	.
2C\	2e\	.	.
4GG/	4d\	.	.
=33	=33	=33	=33
0AA	4c#X\	0r	0r
.	4A/	.	.
.	2.d\	.	.
.	8c#X\	.	.
!	!LO:SIC:v:s:t=8Bn	!	!
.	8B-\	.	.
.	2c#\	.	.
=34-	=34-	=34-	=34-
1.DD	1d	2r	2r
.	.	2d\	2a\
.	2r	1d	[y1dd
2DD/	2A/	.	.
=35	=35	=35	=35
!	!	!	!LO:N:vis=4:xstem:cue
1.GG	2B-\	1d	2dd\]
.	2A/	.	2cc\
*	*lig	*	*
*	*col	*	*
.	1G	0d	1.b-
2AA/	.	.	.
=36-	=36-	=36-	=36-
2BB-/	2.D/	.	.
2BB-/	.	.	4f\
*	*Xlig	*	*
*	*Xcol	*	*
.	4E/	.	4g\
1FF	4F/	2r	4a\
.	4G/	.	4b-\
.	4A/	2A/	[y2cc\
.	4B-\	.	.
=37	=37	=37	=37
!	!	!	!LO:N:xstem:cue
1CC	2c\	2G/	4cc\]
.	.	.	8b-\
.	.	.	8a\
.	2c\	2c\	4g\
.	.	.	4a\
1GG	1G	2.B-\	2b-\
.	.	.	2b-\
.	.	4c\	.
=38-	=38-	=38-	=38-
1DD	1.F	2d\	2a\
.	.	2d\	2.dd\
2.BB-/	.	2d\	.
.	.	.	4cc\
.	4F/	2d\	[<2<b-\
8AA/	4G/	.	.
8GG/	.	.	.
=39	=39	=39	=39
1FF	4A/	1A	4b-\]
.	4B-\	.	8a\
.	.	.	8g\
.	2c\	.	2a\
1BB-	1d	2D/	2b-\
.	.	4B-\	4dd\
.	.	4B-\	4dd\
=40-	=40-	=40-	=40-
0r	0r	2F/	2cc\
.	.	4G/	4b-\
.	.	2A/	2a\
.	.	4F/	4a\
.	.	2c\	2g\
=41	=41	=41	=41
2r	2r	1F	1a
4FF/	4c\	.	.
4FF/	4c\	.	.
2GG/	2B-\	0r	0r
4GG/	4B-\	.	.
2DD/	2A/	.	.
=42-	=42-	=42-	=42-
.	.	.	.
4DD/	4d\	.	.
2AA/	2c#X\	.	.
1DD	1d	2r	2r
.	.	4D/	4f\
.	.	4D/	4f\
=43	=43	=43	=43
2r	2r	2A/	2e/
4DD/	4A/	2D/	2d/
4DD/	4A/	.	.
2AA/	2A/	2r	2r
2DD/	2A/	4d\	4a\
.	.	4d\	4a\
=44-	=44-	=44-	=44-
4AA/	4A/	1c	2cc\
4AA/	4A/	.	.
2C\	2G/	.	1g
[>1GG	[>1G	2B-\	.
.	.	[y2d\	[y2b-\
=45	=45	=45	=45
!	!	!LO:N:xstem:cue	!LO:N:xstem:cue
1GG]	1G]	4d\]	4b-\]
.	.	4c\	4a\
.	.	4B-\	4g\
.	.	4A\	4f\
2.C\	1r	1G	4e\
.	.	.	4c/
.	.	.	2.cc\
4BB-/	.	.	.
=46-	=46-	=46-	=46-
4AA/	1.c	2.A/	.
4GG/	.	.	4b-\
4FF/	.	.	1a
8EE/	.	4B-\	.
8DD/	.	.	.
2CC/	.	1c	.
2CC/	2G/	.	4g\
.	.	.	4f\
*custos:CC	*custos:c	*custos:G	*custos:g
!LO:LB:g=original	!LO:LB:g=original	!LO:LB:g=original	!LO:LB:g=original
=47	=47	=47	=47
1CC	2.c\	1G	2g\
.	.	.	2g\
.	4B-\	.	.
1FF	1A	2A/	2f\
.	.	1F/	1a\
=48-	=48-	=48-	=48-
0r	0r	.	.
.	.	2F/	2a\
.	.	2.c\	2.g\
.	.	4c\	4g\
=49	=49	=49	=49
00r	00r	2c\	2g\
.	.	2.G/	2.b-\
.	.	4G/	4b-\
.	.	2F/	2a\
=50-	=50-	=50-	=50-
.	.	1E	1g
.	.	2D/	2f#X\
.	.	[<2d\	[<2a\
=51	=51	=51	=51
0r	0r	2d\]	2a\]
.	.	2A/	2cc\
.	.	2B-\	2dd\
.	.	2F/	2cc\
=52-	=52-	=52-	=52-
1r	1r	1G	1b-
2r	2r	1d	1a
[>2DD/	[>2A/	.	.
=53	=53	=53	=53
2DD/]	2A/]	00r	00r
2DD/	2d\	.	.
2.AA/	2.c#X\	.	.
4AA/	4c#\	.	.
=54-	=54-	=54-	=54-
2FF#X/	2d\	.	.
2.GG/	2.B-\	.	.
4GG/	4B-\	.	.
2DD/	4A/	.	.
.	[>4A/	.	.
=55	=55	=55	=55
1BB-	4A/]	00r	00r
.	8G/	.	.
.	8F/	.	.
.	2G/	.	.
2AA/	2A/	.	.
1FF/	1A/	.	.
=56-	=56-	=56-	=56-
2EE/	2c\	.	.
2DD/	2f\	.	.
2CC/	2e\	.	.
=57	=57	=57	=57
1GG	1d	1r	1r
2CC/	2c\	2r	2r
1CC/	1G/	1c\	1g\
=58-	=58-	=58-	=58-
2GG/	2G/	2B-\	2g\
2.DD/	4A/	2.A/	2.f\
.	4G/	.	.
.	4F/	.	.
4DD/	8E/	4A/	4f\
.	8D/	.	.
=59	=59	=59	=59
2AA/	2E/	2A/	2e/
2.FF/	2.F/	2.A/	2.a\
4FF/	4F/	4A/	4a\
2FF/	2A/	2A/	2f\
=60-	=60-	=60-	=60-
1CC	4G/	1c	1g
.	4F/	.	.
.	4G/	.	.
.	4A/	.	.
1GG	2B-\	2.B-\	2g\
.	2B-\	.	[y2d/
.	.	4c\	.
=61	=61	=61	=61
!	!	!	!LO:N:xstem:cue
1DD	2B-\	2d\	4d/]
.	.	.	4e/
.	2A/	2A/	4f\
.	.	.	4d/
2.AA/	4A/	1.c	2e/
.	4B-\	.	.
.	4c\	.	2.a\
4GG/	4B-\	.	.
=62-	=62-	=62-	=62-
2.FF/	4A/	.	.
.	4B-\	.	4g\
.	4A/	2F/	2.f\
4EE/	4G/	.	.
2DD/	2F/	1A	.
.	.	.	4e/
2DD/	[y2A/	.	[y2d/
=63	=63	=63	=63
!	!LO:N:xstem:cue	!	!LO:N:xstem:cue
1AA	4A/]	1A	4d/]
.	4G/	.	8c#X/
!	!	!	!LO:SIC:v:s:t=8Bn
.	.	.	8B-/
.	2E/	.	2c#/
1DD	1F	2A/	2d/
.	.	1A\	2.a\
=64-	=64-	=64-	=64-
2.AA/	2r	.	.
.	.	.	4b-\
.	2A/	1A	1cc
4BB-/	.	.	.
1C	2E/	.	.
.	4G/	2c\	[y2g\
.	4A/	.	.
=65	=65	=65	=65
!	!	!	!LO:N:xstem:cue
2.GG/	4B-\	0B-	4g\]
.	4c\	.	4a\
.	2.d\	.	1b-
4AA/	.	.	.
1BB-	.	.	.
.	4D/	.	.
.	4F/	.	2.f\
.	4G/	.	.
=66-	=66-	=66-	=66-
!LO:TX:b:t=Partitura Nicolai Zielenski.	!	!	!
1FF	1A	1A	.
.	.	.	4g\
.	.	.	4a\
.	.	.	4f\
1CC	2G/	1c	4g\
.	.	.	4c/
.	2F/	.	[y2cc\
=67	=67	=67	=67
!	!	!	!LO:N:xstem:cue
00CC	2E/	0c	4cc\]
.	.	.	4b-\
.	2F/	.	1a
.	2G/	.	.
.	2A/	.	4g\
.	.	.	4f\
=68-	=68-	=68-	=68-
.	4G/	0c	2g\
.	4C/	.	.
.	2.c\	.	2.f\
.	4B-\	.	8e/
.	.	.	8d/
.	2G/	.	2e/
=69-	=69-	=69-	=69-
[0FFl	[0Al	[0Fl	[0fl
=70	=70	=70	=70
!LO:TX:b:t=D 4	!	!	!
0FF]	0A]	0F]	0f]
==	==	==	==
*-	*-	*-	*-
!!!system-decoration: g1
!!!RDF**kern: > = above
!!!RDF**kern: < = below
!!!RDF**kern: l = terminal long
!!!ENC: Filip Voros
!!!END: 2021-12-14
!!!EED: Jędrzej Mróz
!!!EEV: 2021-12-21
